X: 7518
T: Cobbler's, The
R: polka
M: 2/4
K: Bminor
dB fB|dB f>e|dB fe|c/B/A/c/ ef/e/|
dB fB|de f>e|de f/e/d/c/|1 B2 B>c:|2 B2 B2||
|:fb ba|fe f>e|dB fB|c/B/A/c/ e2|
fb ba|fe f>e|de f/e/d/c/|1 B2 B2:|2 B2 B>c||

